X:16
T:GB/7e/16 Sowing Machine 
%%VWML:GB-7e-16-0
F:http://www.vwml.org/record/GB/7e/16
C:Transcribed by Simon Furey and Lewis Jones
L:1/8
M:6/8
I:linebreak $
K:Gdor
A | B2 c A2 B | G2 F G2 A | B2 c A2 B | G3- G2 F | G2 A B2 c | d2 d d2 c |$ d2 g g2 f | d3- d2 A | d2 d d2 d | g3 f2 d | c2 c cde | f3 e2 f | d2 c A2 B |$ c2 A G2 G | d2 d cBA | G3- G2 ||
"^Chorus" d | d2 d d2 d | g2 g g2 c | c2 c cde |$ f3 e2 f | d2 c A2 B | c2 A G2 G | d2 d cBA |
G3- G2 |]

